X:44
T:Nell Flaherty's drake
C:anon.
O:Ireland
B:Francis O'Neill: The Dance Music of Ireland no. 44
R:Double jig
Z:Transcribed by Frank Nordberg - http://www.musicaviva.com
%http://www.musicaviva.com/abc/oneill100.abc
M:6/8
L:1/8
Q:3/8=128
K:G
(D|G)AB AGE|DEG GBd|efg dBG|{c}BAA A2(D|G)AB AGE|DGE GBd|efg dBA|BGG G2:|
B|def {a}gfg|afd edB|gfg edB|{c}BAA A2 (D|G)AB AGE|DEG GBd|efg dBA|BGG G2:|


